resources/svg/save-2-line.svg

<svg fill="currentColor" viewBox="0 0 24 24" xmlns="http://www.w3.org/2000/svg"><path d="M5 5V19H19V7.82843L16.1716 5H5ZM4 3H17L20.7071 6.70711C20.8946 6.89464 21 7.149 21 7.41421V20C21 20.5523 20.5523 21 20 21H4C3.44772 21 3 20.5523 3 20V4C3 3.44772 3.44772 3 4 3ZM12 18C10.3431 18 9 16.6569 9 15C9 13.3431 10.3431 12 12 12C13.6569 12 15 13.3431 15 15C15 16.6569 13.6569 18 12 18ZM6 6H15V10H6V6Z"/></svg>

<svg xmlns="http://www.w3.org/2000/svg" viewBox="0 0 24 24" fill="currentColor">
    <g>
        <path fill="none" d="M0 0h24v24H0z"/>
        <path d="M5 5v14h14V7.828L16.172 5H5zM4 3h13l3.707 3.707a1 1 0 0 1 .293.707V20a1 1 0 0 1-1 1H4a1 1 0 0 1-1-1V4a1 1 0 0 1 1-1zm8 15a3 3 0 1 1 0-6 3 3 0 0 1 0 6zM6 6h9v4H6V6z"/>
    </g>
</svg>
